X: 10861
T: JESSIE THE FLOW'R OF DUNBLANE -- Hornpipe
C: C. Rock
R: hornpipe
B: K\"ohler's Violin Repository, v.1, 1885 p.86 #1
F: http://www.archive.org/details/klersviolinrepos01edin
Z: 2012 John Chambers <jc:trillian.mit.edu>
M: C|
L: 1/8
K: Bb
|:\
u(B>c) |\
d>d(d>B) (c>f)f>A | (B>A)B>d (c>A)B>G | (F>G)F>E (D>F)B>c | (d<c)e>d c2B>c |
d>d(d>B) (c>f)f>A | (B>A)B>d (c>A)B>G | (F>G)F>E (D>F)B>c | (d>c)G>A B2 :|
|: u(B>c) |\
(d>B)B>c (d>g)g>f | (d>B)B>c (d>B)B>d | (c>A)A>B (A>c)f>d | c>AB>G F2((3FGA) |
B2d>c    (d>B)B>c | (d>f)f>d (e>c)c>d | (e>d)e>g (f>d)B>c | (d>c)G>A B2 :|

%%sep 2 1 500

